public/avatar/item0/62.svg

<svg xmlns:xlink="http://www.w3.org/1999/xlink" height="58.65" width="49.15" xmlns="http://www.w3.org/2000/svg"><use height="13.7" transform="translate(8.4 22.9)" width="30.45" xlink:href="#a"/><defs><g id="a" fill-rule="evenodd"><path d="m13.55 8.05.6 1.25q1.4 3.6-.4 6.25-2.05 2.9-6.45 2.9l-.75.05q-5.9 0-7.05-1.65-1.15 1.65-7.05 1.65l-.75-.05q-4.4 0-6.45-2.9-1.7-2.65-.4-6.25l.55-1.15v-.1l.4-.55q1.1-1.55 3.3-2.15l7.9-.2q1.25.3 2.45 1.7 1.3-1.4 2.5-1.7 3.2-.75 7.3.05l1.15.35q1.6.5 2.45 1.55l.6.8.1.15" transform="translate(15.7 -4.8)"/><path d="M-.4 15.4q-.35 1.85-2.35 2.3l-5.55.25q-3.8 0-5.75-2.35-2.05-2.45-.65-6.15 1.2-2.95 4.25-3.7l5.95-.3q2.55 0 4 2.5Q.65 9.6-.4 15.4" fill="#a10000" transform="translate(15.7 -4.8)"/><path d="M13.7 9.45q1.4 3.7-.65 6.15-1.95 2.35-5.75 2.35l-5.6-.25q-1.95-.45-2.3-2.3-1.05-5.8.1-7.45L.55 6.7Q1.9 5.45 3.5 5.45l5.95.3q3.05.75 4.25 3.7" fill="#a10000" transform="translate(15.7 -4.8)"/><path d="M9.7 5.85q1.7.45 2.5 1.25l1 1.3q0 .2-1.25-.35l-1.65-.3-5.35.2Q2.1 8.5.6 10.2q-.2.25-.85-.25l-.2.15-.1-.1-.05.1-.25-.15q-.6.5-.8.25Q-3.15 8.5-6 7.95l-5.4-.2-1.6.3q-1.25.55-1.25.35l1-1.3q.8-.8 2.5-1.25l7.6-.2q1.65.4 2.6 2 1.05-1.6 2.65-2l7.6.2" fill="#f73434" transform="translate(15.7 -4.8)"/><path d="M-6.2 6.7q1.5 0 3.05 1.5 1.5 1.5 1.95 3.35Q0 16.4-6.65 16.4q-3.45 0-5.35-1.5-1.7-1.35-1.55-3.35.1-1.95 2-3.35Q-9.5 6.7-6.2 6.7" fill="#410042" transform="translate(15.7 -4.8)"/><path d="M5.4 6.7q3.3 0 5.35 1.5 1.85 1.4 2 3.35.15 2-1.6 3.35-1.9 1.5-5.35 1.5-6.6 0-5.4-4.85Q.85 9.7 2.35 8.2T5.4 6.7" fill="#410042" transform="translate(15.7 -4.8)"/><path d="m12.05 9.4.6 1.9q-1.35-.65-4.05-.35-3 .35-4.25.05Q.5 10.05.2 12.9l-.15-.25q-.15-2.2 1.7-4.05 1.8-1.85 4.05-2.1 3-.35 4.75 1.15l1.5 1.75m-19.5-2.45q2.7.05 4.5 1.55 2.05 1.7 1.9 4.5l-.15-.1q-2.2-1.55-3.6-1.85l-5.5.8-1.9.15q-1.15.05-1.7.6-.15-2.65 1.9-4.25 1.85-1.4 4.55-1.4" fill="#93d7ff" transform="translate(15.7 -4.8)"/><path d="M.7 14.15q4.75 2.25 12.2-1.55-1.4 2.15-2.4 2.8-1.7 1-3.95 1-4.6 0-5.6-1.75l-.25-.5m-5.45 2-2.25.2-3.65-.65q-1.55-.45-2.15-.95l-.75-1.2q.8 0 1.9.7l2.8.45q4.75.5 7.55-1 .2 1.9-3.45 2.45" fill="#9450ab" transform="translate(15.7 -4.8)"/><path d="M3.1 9.35q-1.1-.75.5-1.4 1.75-.65 1.6.15l-.75 1.15-1.35.1m-14.15.7q-1.15-.75.5-1.4 1.75-.7 1.55.1-.1.65-.75 1.2l-1.3.1" fill="#fff" transform="translate(15.7 -4.8)"/><path d="M12.65 11.4q-.45-.55-2.4-.5-1.9.05-2.15-.55l.4-1-.1-.95q-.3-.9-2.05-1.3L4.7 7.05l-.85.05.45-.3q3-1 5.55.4 2.6 1.4 2.8 4.2M-9.7 7.15l3.6-.45q1.65.2 2.7 1.1 2.65 2.25 2.2 4.9-.65-.1-2.1-1.05-1.9-.6-2.4-1.25-.25-1.65-1.1-2.35-1.1-.9-2.65-.9h-.25" fill="#58b5ed" transform="translate(15.7 -4.8)"/></g></defs></svg>

<?xml version="1.0" encoding="UTF-8" standalone="no"?>
<svg xmlns:xlink="http://www.w3.org/1999/xlink" height="58.65px" width="49.15px" xmlns="http://www.w3.org/2000/svg">
  <g transform="matrix(1.0, 0.0, 0.0, 1.0, 24.1, 18.1)">
    <use height="13.7" transform="matrix(1.0, 0.0, 0.0, 1.0, -15.7, 4.8)" width="30.45" xlink:href="#shape0"/>
  </g>
  <defs>
    <g id="shape0" transform="matrix(1.0, 0.0, 0.0, 1.0, 15.7, -4.8)">
      <path d="M13.55 8.05 L14.15 9.3 Q15.55 12.9 13.75 15.55 11.7 18.45 7.3 18.45 L6.55 18.5 Q0.65 18.5 -0.5 16.85 -1.65 18.5 -7.55 18.5 L-8.3 18.45 Q-12.7 18.45 -14.75 15.55 -16.45 12.9 -15.15 9.3 L-14.6 8.15 -14.6 8.05 -14.2 7.5 Q-13.1 5.95 -10.9 5.35 L-3.0 5.15 Q-1.75 5.45 -0.55 6.85 0.75 5.45 1.95 5.15 5.15 4.4 9.25 5.2 L10.4 5.55 Q12.0 6.05 12.85 7.1 L13.45 7.9 13.55 8.05" fill="#000000" fill-rule="evenodd" stroke="none"/>
      <path d="M-0.4 15.4 Q-0.75 17.25 -2.75 17.7 L-8.3 17.95 Q-12.1 17.95 -14.05 15.6 -16.1 13.15 -14.7 9.45 -13.5 6.5 -10.45 5.75 L-4.5 5.45 Q-1.95 5.45 -0.5 7.95 0.65 9.6 -0.4 15.4" fill="#a10000" fill-rule="evenodd" stroke="none"/>
      <path d="M13.7 9.45 Q15.1 13.15 13.05 15.6 11.1 17.95 7.3 17.95 L1.7 17.7 Q-0.25 17.25 -0.6 15.4 -1.65 9.6 -0.5 7.95 L0.55 6.7 Q1.9 5.45 3.5 5.45 L9.45 5.75 Q12.5 6.5 13.7 9.45" fill="#a10000" fill-rule="evenodd" stroke="none"/>
      <path d="M9.7 5.85 Q11.4 6.3 12.2 7.1 L13.2 8.4 Q13.2 8.6 11.95 8.05 L10.3 7.75 4.95 7.95 Q2.1 8.5 0.6 10.2 0.4 10.45 -0.25 9.95 L-0.45 10.1 -0.55 10.0 -0.6 10.1 -0.85 9.95 Q-1.45 10.45 -1.65 10.2 -3.15 8.5 -6.0 7.95 L-11.4 7.75 -13.0 8.05 Q-14.25 8.6 -14.25 8.4 L-13.25 7.1 Q-12.45 6.3 -10.75 5.85 L-3.15 5.65 Q-1.5 6.05 -0.55 7.65 0.5 6.05 2.1 5.65 L9.7 5.85" fill="#f73434" fill-rule="evenodd" stroke="none"/>
      <path d="M-6.2 6.7 Q-4.7 6.7 -3.15 8.2 -1.65 9.7 -1.2 11.55 0.0 16.4 -6.65 16.4 -10.1 16.4 -12.0 14.9 -13.7 13.55 -13.55 11.55 -13.45 9.6 -11.55 8.2 -9.5 6.7 -6.2 6.7" fill="#410042" fill-rule="evenodd" stroke="none"/>
      <path d="M5.4 6.7 Q8.7 6.7 10.75 8.2 12.6 9.6 12.75 11.55 12.9 13.55 11.15 14.9 9.25 16.4 5.8 16.4 -0.8 16.4 0.4 11.55 0.85 9.7 2.35 8.2 3.85 6.7 5.4 6.7" fill="#410042" fill-rule="evenodd" stroke="none"/>
      <path d="M12.05 9.4 L12.65 11.3 Q11.3 10.65 8.6 10.95 5.6 11.3 4.35 11.0 0.5 10.05 0.2 12.9 L0.05 12.65 Q-0.1 10.45 1.75 8.6 3.55 6.75 5.8 6.5 8.8 6.15 10.55 7.65 L12.05 9.4" fill="#93d7ff" fill-rule="evenodd" stroke="none"/>
      <path d="M-7.45 6.95 Q-4.75 7.0 -2.95 8.5 -0.9 10.2 -1.05 13.0 L-1.2 12.9 Q-3.4 11.35 -4.8 11.05 L-10.3 11.85 -12.2 12.0 Q-13.35 12.05 -13.9 12.6 -14.05 9.95 -12.0 8.35 -10.15 6.95 -7.45 6.95" fill="#93d7ff" fill-rule="evenodd" stroke="none"/>
      <path d="M0.7 14.15 Q5.45 16.4 12.9 12.6 11.5 14.75 10.5 15.4 8.8 16.4 6.55 16.4 1.95 16.4 0.95 14.65 L0.7 14.15" fill="#9450ab" fill-rule="evenodd" stroke="none"/>
      <path d="M-4.75 16.15 L-7.0 16.35 -10.65 15.7 Q-12.2 15.25 -12.8 14.75 L-13.55 13.55 Q-12.75 13.55 -11.65 14.25 L-8.85 14.7 Q-4.1 15.2 -1.3 13.7 -1.1 15.6 -4.75 16.15" fill="#9450ab" fill-rule="evenodd" stroke="none"/>
      <path d="M3.1 9.35 Q2.0 8.6 3.6 7.95 5.35 7.3 5.2 8.1 L4.45 9.25 3.1 9.35" fill="#ffffff" fill-rule="evenodd" stroke="none"/>
      <path d="M-11.05 10.05 Q-12.2 9.3 -10.55 8.65 -8.8 7.95 -9.0 8.75 -9.1 9.4 -9.75 9.95 L-11.05 10.05" fill="#ffffff" fill-rule="evenodd" stroke="none"/>
      <path d="M12.65 11.4 Q12.2 10.85 10.25 10.9 8.35 10.95 8.1 10.35 L8.5 9.35 8.4 8.4 Q8.1 7.5 6.35 7.1 L4.7 7.05 3.85 7.1 4.3 6.8 Q7.3 5.8 9.85 7.2 12.45 8.6 12.65 11.4" fill="#58b5ed" fill-rule="evenodd" stroke="none"/>
      <path d="M-9.7 7.15 L-6.1 6.7 Q-4.45 6.9 -3.4 7.8 -0.75 10.05 -1.2 12.7 -1.85 12.6 -3.3 11.65 -5.2 11.05 -5.7 10.4 -5.95 8.75 -6.8 8.05 -7.9 7.15 -9.45 7.15 L-9.7 7.15" fill="#58b5ed" fill-rule="evenodd" stroke="none"/>
    </g>
  </defs>
</svg>
